X:1

T:Whiteside's Hornpipe

M:4/4

L:1/8

S:James Whiteside, manuscript

Z:Paul Kinder

R:Hornpipe

K:G

gf|:dcAc BAGB|AF (3DEF G2 Bc|dedB cBAB|c2 A2 A2 Bc|

dBGB cAFA|GF (3DEF G2 Bc|dfgf dcAF|G2 GF GABc:|

|:dd (3ddd dBGB|cc (3ccc cAFA|BB (3BBB BAGB|AGFA c2 Bc|

dd (3ddd dBGB|cc (3ccc cAFA|BAGB AGFA|G2 G2 G2 z2:||

                       

WHITEWASH STATION. See “Hop High Ladies.”

                       

WHITEWASHED KATE. AKA and see "Kate Lay Sleeping," "Kate's Laid in the Hay," "Round and Round This Green Sugar Tree." American, March (4/4 time). USA, southwestern Pa. A Dorian. Standard tuning. AB. This piece, a fiddle tune and a song air, turns up in playparty and sea‑chanty traditions. These words were collected with the tune:

***

Whitewashed Kate she was my darling (x3)

Ear‑lye in the morning.

***

Source for notated version: Samuel Losch (fiddler from Juniata County, Pa., 1930's) [Bayard]. Bayard (Dance to the Fiddle), 1981; No. 251D, pg. 215.

                       

WHITEWATER JIG. American, Jig. USA, northern New York. A Major ('A' part) & D Major ('B' part). Standard tuning. AA'BB'. Source for notated version: learned by fiddler Vic Kibler (Hamilton County, N.Y.) from "local country musician and fiddler Jimmy Hamblin, of Fort Ann, who has recorded it" [Bohrer]. Bohrer (Vic Kibler), 1992; No. 4, pg. 4.

                       

WHITLEY CHAPEL BARN DANCE. Composed by the late Scottish bandleader and accordion player Jimmy Shand. It is used as a vehicle for the Bradford Barndance.

           

WHITNEY'S FANCY (Roga Ui Uitnaig/Uitnig). Irish, Hornpipe. G Major. Standard tuning. AABB. O'Neill (O’Neill’s Irish Music), 1915/1987; No. 360, pg. 174. O'Neill (Krassen), 1976; pg. 213. O'Neill (Music of Ireland: 1850 Melodies), 1903/1979; No. 1765, pg. 329. O'Neill (Dance Music of Ireland: 1001 Gems), 1907/1986; No. 933, pg. 159.

